src/pos-icons/fruit-citrus-off.svg

<svg height="24" viewBox="0 0 24 24" width="24" xmlns="http://www.w3.org/2000/svg"><path d="m22.1 21.5-19.7-19.8-1.3 1.3 3.3 3.3c-1 1.2-1.5 2.6-1.6 3.9-.7.5-1 1.3-.7 2.1s1.1 1.3 1.9 1.3c1.1 1.3 2.9 2.1 5 2.3.1-1.4.6-2.6 1.3-3.7l1.5 1.5c-.5.8-.8 1.8-.8 2.8 0 3 2.5 5.5 5.5 5.5 1 0 2-.3 2.8-.8l1.5 1.5zm-9.1-5c0-.5.1-.9.3-1.4l1.7 1.7-1.7 1.2c-.2-.5-.3-1-.3-1.5m.9 2.3 1.8-1.2.3.3v2.1c-.8-.2-1.6-.6-2.1-1.2m3.1 1.1v-1l.8.8c-.3.1-.5.2-.8.2m3-3.1v-.3c0-.5-.1-1-.3-1.5l-.9.6-.7-.7 1-.7c-.5-.6-1.3-1-2.1-1.2v.8l-2.4-2.4c.6-.2 1.3-.4 1.9-.4 3 0 5.5 2.5 5.5 5.5 0 .7-.1 1.3-.4 1.9zm-7-7-5.9-5.9c.8-.5 1.7-.9 2.6-1.2 4.1-1.4 8.3-.6 10.3 1.7.8 0 1.6.5 1.9 1.3s0 1.6-.7 2.1c0 .8-.2 1.6-.6 2.4-1.2-.7-2.6-1.2-4.1-1.2-1.2 0-2.4.3-3.5.8z"/></svg>

<?xml version="1.0" encoding="UTF-8"?><!DOCTYPE svg PUBLIC "-//W3C//DTD SVG 1.1//EN" "http://www.w3.org/Graphics/SVG/1.1/DTD/svg11.dtd"><svg xmlns="http://www.w3.org/2000/svg" xmlns:xlink="http://www.w3.org/1999/xlink" version="1.1" id="mdi-fruit-citrus-off" width="24" height="24" viewBox="0 0 24 24"><path d="M22.1 21.5L2.4 1.7L1.1 3L4.4 6.3C3.4 7.5 2.9 8.9 2.8 10.2C2.1 10.7 1.8 11.5 2.1 12.3C2.4 13.1 3.2 13.6 4 13.6C5.1 14.9 6.9 15.7 9 15.9C9.1 14.5 9.6 13.3 10.3 12.2L11.8 13.7C11.3 14.5 11 15.5 11 16.5C11 19.5 13.5 22 16.5 22C17.5 22 18.5 21.7 19.3 21.2L20.8 22.7L22.1 21.5M13 16.5C13 16 13.1 15.6 13.3 15.1L15 16.8L13.3 18C13.1 17.5 13 17 13 16.5M13.9 18.8L15.7 17.6L16 17.9V20C15.2 19.8 14.4 19.4 13.9 18.8M17 19.9V18.9L17.8 19.7C17.5 19.8 17.3 19.9 17 19.9M20 16.8V16.5C20 16 19.9 15.5 19.7 15L18.8 15.6L18.1 14.9L19.1 14.2C18.6 13.6 17.8 13.2 17 13V13.8L14.6 11.4C15.2 11.2 15.9 11 16.5 11C19.5 11 22 13.5 22 16.5C22 17.2 21.9 17.8 21.6 18.4L20 16.8M13 9.8L7.1 3.9C7.9 3.4 8.8 3 9.7 2.7C13.8 1.3 18 2.1 20 4.4C20.8 4.4 21.6 4.9 21.9 5.7C22.2 6.5 21.9 7.3 21.2 7.8C21.2 8.6 21 9.4 20.6 10.2C19.4 9.5 18 9 16.5 9C15.3 9 14.1 9.3 13 9.8Z" /></svg>
